src/assets/footer/Vector.svg

<svg fill="none" height="29" viewBox="0 0 30 29" width="30" xmlns="http://www.w3.org/2000/svg"><path d="m24.4508 5.24402c-1.8821-1.88318-4.2814-3.16679-6.8932-3.68601-2.6118-.51921-5.3189-.25342-7.77985.76543-2.4609 1.01886-4.56365 2.74442-6.04347 4.95829-1.47983 2.21387-2.269 4.81717-2.269 7.47917 0 2.663.78917 5.2653 2.269 7.4802 1.47982 2.2138 3.58257 3.9394 6.04347 4.9583 2.45985 1.0188 5.16805 1.2846 7.77985.7644 2.6118-.5193 5.0101-1.8029 6.8932-3.686 2.5235-2.525 3.9407-5.9483 3.9407-9.5169 0-3.5696-1.4172-6.99292-3.9407-9.51688zm-6.7033 12.33138c-.5563.5552-1.2654.9343-2.0371 1.0878s-1.5712.0742-2.2988-.2276c-.7265-.3009-1.3484-.8108-1.7846-1.465-.4372-.6541-.6701-1.4237-.6701-2.2097s.2329-1.5556.6701-2.2098c.4372-.6541 1.0581-1.1641 1.7846-1.4649.7266-.3008 1.5271-.3801 2.2988-.2277.7717.1535 1.4808.5316 2.0371 1.0879.3704.3699.6639.8087.864 1.2908.2002.4832.3038 1.0004.3038 1.5237s-.1036 1.0405-.3038 1.5236c-.2001.4832-.4936.921-.864 1.2909zm10.8267 7.9242c-.2874-.2875-.6527-.4842-1.0509-.5636-.3981-.0803-.8107-.0401-1.1863.1154-.3756.1556-.6968.4183-.9226.7562-.2257.3379-.3468.7345-.3468 1.1404s.1211.8035.3468 1.1404c.2258.3379.547.6006.9226.7562.3756.1545.7882.1947 1.1863.1154.3982-.0794.7635-.2751 1.0509-.5636.3828-.3842.5983-.9055.5983-1.4484.001-.5429-.2145-1.0642-.5983-1.4484zm-27.28748-21.47738c.28734.28948.65371.48728 1.05291.56763.39921.08036.8138.04121 1.19043-.11435.37663-.15453.69886-.41928.92566-.75719.2268-.33893.34789-.73658.34789-1.14453 0-.40796-.12109-.80561-.34789-1.14454s-.54903-.60266-.92566-.757188c-.37765-.155558-.79122-.195736-1.19043-.114351-.40023.080355-.76659.278151-1.05291.567629-.382785.38529-.597267.90554-.597267 1.44845s.214482 1.06315.597267 1.44844z" fill="#292929"/></svg>

<svg width="30" height="29" viewBox="0 0 30 29" fill="none" xmlns="http://www.w3.org/2000/svg">
<path d="M24.4508 5.24402C22.5687 3.36084 20.1694 2.07723 17.5576 1.55801C14.9458 1.0388 12.2387 1.30459 9.77775 2.32344C7.31685 3.3423 5.2141 5.06786 3.73428 7.28173C2.25445 9.4956 1.46528 12.0989 1.46528 14.7609C1.46528 17.4239 2.25445 20.0262 3.73428 22.2411C5.2141 24.4549 7.31685 26.1805 9.77775 27.1994C12.2376 28.2182 14.9458 28.484 17.5576 27.9638C20.1694 27.4445 22.5677 26.1609 24.4508 24.2778C26.9743 21.7528 28.3915 18.3295 28.3915 14.7609C28.3915 11.1913 26.9743 7.76798 24.4508 5.24402ZM17.7475 17.5754C17.1912 18.1306 16.4821 18.5097 15.7104 18.6632C14.9387 18.8167 14.1392 18.7374 13.4116 18.4356C12.6851 18.1347 12.0632 17.6248 11.627 16.9706C11.1898 16.3165 10.9569 15.5469 10.9569 14.7609C10.9569 13.9749 11.1898 13.2053 11.627 12.5511C12.0642 11.897 12.6851 11.387 13.4116 11.0862C14.1382 10.7854 14.9387 10.7061 15.7104 10.8585C16.4821 11.012 17.1912 11.3901 17.7475 11.9464C18.1179 12.3163 18.4114 12.7551 18.6115 13.2372C18.8117 13.7204 18.9153 14.2376 18.9153 14.7609C18.9153 15.2842 18.8117 15.8014 18.6115 16.2845C18.4114 16.7677 18.1179 17.2055 17.7475 17.5754ZM28.5742 25.4996C28.2868 25.2121 27.9215 25.0154 27.5233 24.936C27.1252 24.8557 26.7126 24.8959 26.337 25.0514C25.9614 25.207 25.6402 25.4697 25.4144 25.8076C25.1887 26.1455 25.0676 26.5421 25.0676 26.948C25.0676 27.3539 25.1887 27.7515 25.4144 28.0884C25.6402 28.4263 25.9614 28.689 26.337 28.8446C26.7126 28.9991 27.1252 29.0393 27.5233 28.96C27.9215 28.8806 28.2868 28.6849 28.5742 28.3964C28.957 28.0122 29.1725 27.4909 29.1725 26.948C29.1735 26.4051 28.958 25.8838 28.5742 25.4996ZM1.28672 4.02222C1.57406 4.3117 1.94043 4.5095 2.33963 4.58985C2.73884 4.67021 3.15343 4.63106 3.53006 4.4755C3.90669 4.32097 4.22892 4.05622 4.45572 3.71831C4.68252 3.37938 4.80361 2.98173 4.80361 2.57378C4.80361 2.16582 4.68252 1.76817 4.45572 1.42924C4.22892 1.09031 3.90669 0.82658 3.53006 0.672052C3.15241 0.516494 2.73884 0.476316 2.33963 0.557701C1.9394 0.638056 1.57304 0.835852 1.28672 1.12533C0.903935 1.51062 0.689453 2.03087 0.689453 2.57378C0.689453 3.11669 0.903935 3.63693 1.28672 4.02222Z" fill="#292929"/>
</svg>
